public/img/participation-2.svg

<svg width="112" height="97" viewBox="0 0 112 97" fill="none" xmlns="http://www.w3.org/2000/svg">
<path d="M72.5 22H7.5C3.35781 22 0 25.3578 0 29.5V84.5C0 88.6422 3.35781 92 7.5 92H72.5C76.6422 92 80 88.6422 80 84.5V29.5C80 25.3578 76.6422 22 72.5 22ZM71.5625 84.5H8.4375C8.18886 84.5 7.9504 84.4012 7.77459 84.2254C7.59877 84.0496 7.5 83.8111 7.5 83.5625V30.4375C7.5 30.1889 7.59877 29.9504 7.77459 29.7746C7.9504 29.5988 8.18886 29.5 8.4375 29.5H71.5625C71.8111 29.5 72.0496 29.5988 72.2254 29.7746C72.4012 29.9504 72.5 30.1889 72.5 30.4375V83.5625C72.5 83.8111 72.4012 84.0496 72.2254 84.2254C72.0496 84.4012 71.8111 84.5 71.5625 84.5ZM65 70.125V73.875C65 74.9105 64.1605 75.75 63.125 75.75H31.875C30.8395 75.75 30 74.9105 30 73.875V70.125C30 69.0895 30.8395 68.25 31.875 68.25H63.125C64.1605 68.25 65 69.0895 65 70.125ZM65 55.125V58.875C65 59.9105 64.1605 60.75 63.125 60.75H31.875C30.8395 60.75 30 59.9105 30 58.875V55.125C30 54.0895 30.8395 53.25 31.875 53.25H63.125C64.1605 53.25 65 54.0895 65 55.125ZM65 40.125V43.875C65 44.9105 64.1605 45.75 63.125 45.75H31.875C30.8395 45.75 30 44.9105 30 43.875V40.125C30 39.0895 30.8395 38.25 31.875 38.25H63.125C64.1605 38.25 65 39.0895 65 40.125ZM25.625 42C25.625 45.1066 23.1066 47.625 20 47.625C16.8934 47.625 14.375 45.1066 14.375 42C14.375 38.8934 16.8934 36.375 20 36.375C23.1066 36.375 25.625 38.8934 25.625 42ZM25.625 57C25.625 60.1066 23.1066 62.625 20 62.625C16.8934 62.625 14.375 60.1066 14.375 57C14.375 53.8934 16.8934 51.375 20 51.375C23.1066 51.375 25.625 53.8934 25.625 57ZM25.625 72C25.625 75.1066 23.1066 77.625 20 77.625C16.8934 77.625 14.375 75.1066 14.375 72C14.375 68.8934 16.8934 66.375 20 66.375C23.1066 66.375 25.625 68.8934 25.625 72Z" fill="#FFD100"/>
<path d="M112 13.1551L111.965 13.125L112 13.0849L111.098 12.3221L104.792 6.5215C104.792 6.5215 104.681 6.63691 104.498 6.80752L104.331 6.98816C102.893 8.31789 98.2832 12.1666 92.8735 12.2419C92.757 12.2419 92.6404 12.2419 92.5239 12.2419C89.6772 11.9358 86.9015 10.4204 84.0852 7.6154C79.4099 2.93876 74.2078 0.414772 68.6107 0.0785763C68.4537 0.0785763 68.2966 0.0785763 68.1447 0.0785763C67.3027 0.00463296 66.4568 -0.0171521 65.612 0.0133455C57.1834 0.35456 50.9227 5.95448 48.7953 8.11216C48.3394 8.51861 48.0658 8.80964 48.0051 8.85982L48.0355 8.88993C48.0262 8.9068 48.0142 8.92206 48 8.93509L48.9016 9.68777L55.2079 15.4934L55.5017 15.2024L55.6689 15.0217C57.1023 13.687 61.7168 9.8383 67.1266 9.76805C67.2431 9.76805 67.3545 9.76805 67.471 9.76805C70.3228 10.0741 73.0935 11.5895 75.9098 14.3945C80.5901 19.0511 85.782 21.5751 91.3792 21.9213C91.5311 21.9213 91.6882 21.9213 91.8452 21.9213C92.6872 21.9955 93.5331 22.0172 94.3778 21.9865C102.806 21.6453 109.067 16.0504 111.195 13.8927C111.635 13.4712 111.914 13.1852 111.97 13.125" fill="#EFC825"/>
</svg>

<svg width="112" height="97" fill="none" xmlns="http://www.w3.org/2000/svg"><path d="M72.5 22h-65A7.5 7.5 0 000 29.5v55A7.5 7.5 0 007.5 92h65a7.5 7.5 0 007.5-7.5v-55a7.5 7.5 0 00-7.5-7.5zm-.938 62.5H8.438a.938.938 0 01-.938-.938V30.438a.937.937 0 01.938-.938h63.124a.938.938 0 01.938.938v53.124a.938.938 0 01-.938.938zM65 70.125v3.75c0 1.035-.84 1.875-1.875 1.875h-31.25A1.875 1.875 0 0130 73.875v-3.75c0-1.035.84-1.875 1.875-1.875h31.25c1.035 0 1.875.84 1.875 1.875zm0-15v3.75c0 1.035-.84 1.875-1.875 1.875h-31.25A1.875 1.875 0 0130 58.875v-3.75c0-1.035.84-1.875 1.875-1.875h31.25c1.035 0 1.875.84 1.875 1.875zm0-15v3.75c0 1.035-.84 1.875-1.875 1.875h-31.25A1.875 1.875 0 0130 43.875v-3.75c0-1.035.84-1.875 1.875-1.875h31.25c1.035 0 1.875.84 1.875 1.875zM25.625 42a5.625 5.625 0 11-11.25 0 5.625 5.625 0 0111.25 0zm0 15a5.625 5.625 0 11-11.25 0 5.625 5.625 0 0111.25 0zm0 15a5.625 5.625 0 11-11.25 0 5.625 5.625 0 0111.25 0z" fill="#FFD100"/><path d="M112 13.155l-.035-.03.035-.04-.902-.763-6.306-5.8s-.111.115-.294.286l-.167.18c-1.438 1.33-6.048 5.179-11.457 5.254h-.35c-2.847-.306-5.623-1.822-8.439-4.627C79.41 2.94 74.208.415 68.611.08h-.466a20.499 20.499 0 00-2.533-.066c-8.429.342-14.69 5.941-16.817 8.1-.456.406-.73.697-.79.747l.03.03a.178.178 0 01-.035.045l.902.753 6.306 5.805.294-.29.167-.181c1.433-1.335 6.048-5.184 11.458-5.254h.344c2.852.306 5.623 1.821 8.439 4.627 4.68 4.656 9.872 7.18 15.47 7.526h.465c.842.075 1.688.096 2.533.066 8.428-.342 14.689-5.937 16.817-8.094.44-.422.719-.708.775-.768" fill="#EFC825"/></svg>
